assets/perplexityai/original.svg

<svg height="80" viewBox="0 0 48 48" width="80" xmlns="http://www.w3.org/2000/svg"><g fill="none" stroke="#20808d" stroke-linecap="round" stroke-linejoin="round"><path d="m24 4.5v39m-10.27-26.927v-9.99l10.27 9.99m0 14.5-10.27 10.344v-14.407l10.27-10.437m0 0 10.27-9.99v9.99"/><path d="m13.73 31.396h-4.29v-14.823h29.12v14.823h-4.29"/><path d="m24 16.573 10.27 10.437v14.407l-10.27-10.344"/></g></svg>

<svg xmlns="http://www.w3.org/2000/svg" width="80" height="80" viewBox="0 0 48 48"><g fill="none" stroke="#20808d" stroke-linecap="round" stroke-linejoin="round"><path d="M24 4.5v39M13.73 16.573v-9.99L24 16.573m0 14.5L13.73 41.417V27.01L24 16.573m0 0 10.27-9.99v9.99"/><path d="M13.73 31.396H9.44V16.573h29.12v14.823h-4.29"/><path d="M24 16.573 34.27 27.01v14.407L24 31.073"/></g></svg>
